X:1
T:Title
%%score { 1 | 2 } 3 4 { 5 | 6 }
L:1/8
Q:1/4=120
M:none
K:G
V:1 treble nm="S."
V:2 treble 
V:3 treble nm="A."
V:4 treble-8 nm="T."
V:5 bass nm="B."
V:6 bass 
V:1
"^Matthew 21,9" z4 E4"^Hosanna to the Son of David" (=F6 ED)"^Thomas Weelkes\n(c. 1575-1623)" E4 | %1
w: Ho- san * * na,|
 z2 A2 A4 A8 z4 z2 | e3 d cc (B2 c2)"^- 2 -" A8 z2 =f3 e | dd(cd e2) e2 E (A2 ^G/F/ G2) A4 z2 | %4
w: Ho- san- na|to the Son of Da * vid, to the|Son of Da * * vid, of Da * * * vid.|
 d4 e2 d2 (=f3 e d2)"^- 3 -" ^c2 A2 A3 AA (d2 !courtesy!^c) | d2 !courtesy!=cd e4 z2 z ecAB>B | %6
w: Bless- ed be the * * King that com- eth in the *|name of the Lord, that com- eth in the|
 A A2 ^G A2"^- 4 -" B2 (c>d e2) e2 ^c2 | d4 ^c2 e2 =f4 e2 !courtesy!^c2 d4 | ^c4 z8"^- 5 -" z4 | %9
w: name of the Lord, of the * * Lord. Ho-|san- na, Ho- san- na, Ho- san-|na.|
 E3 F G>EGA B3 (c/d/) e8 z4 | z4 z4"^- 6 -" A3 Bc>Acd | e3 d c4 z2 e2 e2 =f2 e4 ^c2 | %12
w: Thou that sit- test in the high- est * heavens,|thou that sit- test in the|high- est heavens, the high- est heavens, the|
 (dc B2) (A2 B4)"^- 7 -" ^c4 z2 A2 A4 A4 z2 | ^c2 d4 !courtesy!^c4 A3 B(!courtesy!^cd e2) | %14
w: high * * est * heavens. Ho- san- na,|Ho- san- na in ex- cel * *|
 d2 =f4 e2 d4"^- 8 -" A2 A4 A2 d4 ^c8 | %15
w: sis, in ex- cel- sis De- o, De- o.|
V:2
 z4 A4 A4 A8 | z2 ^c2 (d6 !courtesy!^cB) !courtesy!^c2 e3 d=c(c"^___" B2) | %2
w: Ho- san- na,|Ho- san * * na to the Son of Da|
 (A2 ^G2) A2 z8 z2 =f3 ed(d"^___" c2) |"^____" d2 e2 A3 Bcd e4 ^c4 z2 | A4 A2 A4 A4 A4 z8 | %5
w: * * vid, to the Son of Da|* vid, to the Son of Da- vid.|Bless- ed be the King|
 z4 z2 z ecAB>BE A2 ^G | A2 B2 (c>d) e3 A B2 ^c2 e2 | =f4 e2 ^c2 d4 !courtesy!^c2 A2 A4 | %8
w: that com- eth in the name of the|Lord, of the * Lord, of the Lord. Ho-|san- na, Ho- san- na, Ho- san-|
 A8- A4 z4 | z2 z2 E3 FG>EGA B2 (cd) e8 | z8 z4 A3 B | c>Acd e3 (d/c/) B2 G4 dc B2 e4 | %12
w: na. *|Thou that sit- test in the high- est * heavens,|thou that|sit- test in the high- est * heavens, the high- est heavens, the|
 =f2 e8 e4 z2 ^c2 d4 c4 z2 | A2 A4 A2 A3 B^cd (e2 A2) | %14
w: high- est heavens. Ho- san- na,|Ho- san- na in ex- cel- sis De *|
 A4 z4 z2 =f4 e2 dd (!courtesy!=f3 e d2) e8 | %15
w: o, in ex- cel- sis De * * o.|
V:3
 z4 ^C4 (D6 !courtesy!^CB,) C4 | z2 E2 (=F6 ED) E6 E3 D | %2
w: Ho- san * * na,|Ho- san * * na to the|
 CD E2 E2 z2 A3 G=FF (E2 D2) C2 (D/E/!courtesy!=F/G/ A2) |"^____" (=F2 E4) z2 E2 E4 E4 z2 | %4
w: Son of Da- vid, to the Son of Da * vid, Da * * * *|* vid, of Da- vid.|
 =F4 E2 !courtesy!=F2 (A3 G !courtesy!=F2) E4 (!courtesy!=F2 E2) D2 z A | %5
w: Bless- ed be the * * King, the * King that|
 =FDA>A ^G A2 !courtesy!^GAE E4 E2 | E3 E E4 C(A, E2) E2 A2 | %7
w: com- eth in the name of the Lord, that com- eth|in the name of the * Lord. Ho-|
 (=F>E D/E/!courtesy!=F/D/) A2 A2 A4 A3 E !courtesy!=F4 | E2 A,B, C>A,CD E3 D C4 | %9
w: san * * * * * na, Ho- san- na, Ho- san-|na. Thou that sit- test in the high- est heavens,|
 z2 B,4 E2 E3 E ^G2 (A2 B2) A4 !courtesy!^G2 | A2 E2 =F8 E4 | E4 E3 FG>EGA B2 A2 ^G2 A4 | %12
w: thou that sit- test in the * high- est|heavens, the high- est|heavens, thou that sit- test in the high- est heavens, in|
 A2 ^G2 (A4 !courtesy!^G2) A4 z2 E2 =F4 E4 z2 | E2 =F4 E2 A,(B,^C)(D E2) A2 EE | %14
w: the high- est * heavens. Ho- san- na,|Ho- san- na in ex * cel * sis, in ex-|
 (=F3 G A3 G!courtesy!=FE!courtesy!=FG) A2 EE !courtesy!=F3 E(!courtesy!=FG A2) A8 | %15
w: cel * * * * * * * sis, in ex- cel- sis De * * o.|
V:4
 z4 E3 (A/G/ =F2 DE!courtesy!=FG A2) A4 | z2 A3 (G=FE D2 E!courtesy!=F) E4 ^G2 A2 E2 | %2
w: Ho- san * * * * * * * na,|Ho- san * * * * * na to the Son,|
 z4 e3 dcc (c2 d2) A4 z2 A2 c2 | A4 e3 dcc B4 A4 z2 | %4
w: to the Son of Da * vid, of Da-|vid, to the Son of Da- vid.|
 d4 A2 =F2 (D3 E!courtesy!=FD)Eec A2 d>d^cd(=f e2) | d2 A2 BcB>BAc B2 A(c B2) | %6
w: Bless- ed be the * * * King that com- eth in the name of the *|Lord, that com- eth in the name of the Lord, that *|
 c2 B2 Ac B2 A>(d B2) A4 | z4 z2 e2 d4 e2 z A A4 | A4 A3 Bc>Acd e3 (d/c/) | %9
w: com- eth in the name of the * Lord.|Ho- san- na, Ho- san-|na. Thou that sit- test in the high- est *|
 B4 z4 z2 e4 c2 B>Bcd (e3 d) | (^cB c2) d4 A2 d2 =c3 B | A2 E2 E3 E B2 z2 B2 d2 e2 ^c4 | %12
w: heavens, thou that sit- test in the high- est|* * * heavens, thou that sit- test|in the high- est heavens, high- est heavens, in|
 A2 e6 e2 e4 z2 A2 A4 A4 z2 | A2 A4 A4 A2 (A3 B ^c2) | d6 ^c2 A4 A4 (A6 =f2) e8 | %15
w: the high- est heavens. Ho- san- na,|Ho- san- na in ex * *|cel- sis De- o, De * o.|
V:5
 A,8 D,4 A,,8 | z2 A,,2 A,8 A,2 C3 B,A,(A,"^___" ^G,2) | %2
w: Ho- san- na,|Ho- san- na to the Son of Da|
"^___" (A,2 E,2) z4 =F,3 E,D,D, (^C,2 D,2) A,,2 D,2 A,,2 | z4 C3 B,A,A, (B,2 E,2) E,4 z2 | %4
w: * vid, to the Son of Da * vid, Da- vid,|to the Son of Da * vid.|
 D,4 ^C,2 D,4 D,4 A,,2 z A,=F,D,A,>A,D,D, A,,2 | A,2 z8 z4 z E, | %6
w: Bless- ed be the King that com- eth in the name of the|Lord, that|
 C,A,,E,>E, A,, A,2 ^G,A,=F, E,2 A,,4 | z4 z2 A,2 (=F,>E,D,/E,/!courtesy!=F,/D,/) A,2 A,,2 D,4 | %8
w: com- eth in the name of the Lord, of the Lord.|Ho- san * * * * * na, Ho- san-|
 A,,8 z4 E,3 F, | G,>E,G,A, B,2 C2 B,4 E,2 A,2 ^G,2 A,2 B,2 B,2 | A,6 A,2 A,4 z4 | %11
w: na. Thou that|sit- test in the high- est heavens, thou that sit- test in the|high- est heavens,|
 A,,3 B,, C,>A,,C,D, E,3 E, E,2 z4 A,3 A, | D4 (C2 B,4) A,4 z2 A,2 (=F,2 D,2) E,4 z2 | %13
w: thou that sit- test in the high- est heavens, in the|high- est * heavens. Ho- san * na,|
 A,,2 D,4 A,,8- A,,4 | D,3 (E, =F,)(G, A,2) D,2 D4 ^C2 D2 D,3 (E,F,D,) A,8 | %15
w: Ho- san- na *|in ex * cel * sis, in ex- cel- sis De * * o.|
V:6
 z4 A,,4 A,4 A,4 z4 |"^This edition  Andrew Sims 2017" A,4 (D,6 A,,2) A,,4 z4 z2 | %2
w: Ho- san- na,|Ho- san * na|
 C3 B, A,A, ^G,2 A,4 A,3 =G,=F,G, A,4 A,2 | D,D, A,4 A,,4 E,4 A,,4 z2 | %4
w: to the Son of Da- vid, to the Son of Da- vid,|to the Son of Da- vid.|
 A,4 A,2 A,4 A,4 A,2 (A,,2 D,2) A,,A,=F,D,A,>A, | D,2 =F,2 E,4 A,, A,2 ^G,A,A,, E,2 | %6
w: Bless- ed be the King, the * King that com- eth in the|name of the Lord, in the name of the|
 A,,2 z E, C,A,,E,>E,A,, A,2 ^G, A,4 | z8 z4 z2 A,2 (=F,>E,D,/E,/!courtesy!=F,/D,/) | %8
w: Lord, that com- eth in the name of the Lord.|Ho- san * * * * *|
 E,4 z4 A,,3 B,,C,>A,,C,D, | E,6 E,2 E,4 z2 A,,2 E,2 A,2 E,4 | z4 D,3 E,=F,>D,F,G, A,2 A,2 | %11
w: na. Thou that sit- test in the|high- est heavens, the high- est heavens,|thou that sit- test in the high- est|
 A,6 A,2 G,2 C2 B,2 z4 A,4 | D,2 E,6 E,2 A,4 z2 A,,2 D,4 A,,4 z2 | A,2 (=F,2 D,2) E,4 E,2 E,2 A,4 | %14
w: heavens, the high- est heavens, in|the high- est heavens. Ho- san- na,|Ho- san * na in ex- cel-|
 A,4 z4 D,3 E,=F,(G, A,2) D,8 A,,8 | %15
w: sis, in ex- cel- sis * De- o.|

